inst/assets/svg/wi-sunset.svg

<?xml version="1.0" encoding="UTF-8"?>
<svg xmlns="http://www.w3.org/2000/svg" xmlns:xlink="http://www.w3.org/1999/xlink" width="30pt" height="30pt" viewBox="0 0 30 30" version="1.1">
<g id="surface916">
<path style=" stroke:none;fill-rule:nonzero;fill:rgb(0%,0%,0%);fill-opacity:1;" d="M 2.878906 15.46875 C 2.878906 15.191406 2.980469 14.96875 3.179688 14.789063 C 3.351563 14.609375 3.578125 14.53125 3.859375 14.53125 L 6.171875 14.53125 C 6.441406 14.53125 6.660156 14.621094 6.839844 14.800781 C 7.011719 14.980469 7.101563 15.199219 7.101563 15.46875 C 7.101563 15.75 7.011719 15.988281 6.828125 16.179688 C 6.648438 16.371094 6.429688 16.46875 6.171875 16.46875 L 3.871094 16.46875 C 3.601563 16.46875 3.371094 16.371094 3.179688 16.171875 C 2.980469 15.96875 2.878906 15.738281 2.878906 15.46875 Z M 6.171875 7.609375 C 6.171875 7.328125 6.25 7.101563 6.421875 6.929688 C 6.621094 6.730469 6.851563 6.628906 7.121094 6.628906 C 7.410156 6.628906 7.628906 6.730469 7.800781 6.929688 L 9.421875 8.558594 C 9.878906 9 9.878906 9.449219 9.421875 9.910156 C 9.230469 10.101563 9.019531 10.191406 8.769531 10.191406 C 8.550781 10.191406 8.328125 10.101563 8.089844 9.910156 L 6.429688 8.289063 C 6.261719 8.109375 6.171875 7.878906 6.171875 7.609375 Z M 8.140625 20.890625 C 8.140625 20.628906 8.238281 20.398438 8.441406 20.199219 C 8.621094 20.019531 8.851563 19.929688 9.121094 19.929688 L 12.339844 19.929688 C 12.449219 19.929688 12.539063 19.949219 12.621094 20.011719 L 14.96875 22.230469 L 17.359375 20 C 17.429688 19.949219 17.53125 19.921875 17.648438 19.921875 L 20.949219 19.921875 C 21.21875 19.921875 21.449219 20.011719 21.640625 20.199219 C 21.828125 20.390625 21.929688 20.621094 21.929688 20.878906 C 21.929688 21.148438 21.828125 21.378906 21.640625 21.570313 C 21.449219 21.761719 21.21875 21.859375 20.949219 21.859375 L 18.269531 21.859375 L 15.128906 24.699219 C 15.011719 24.789063 14.898438 24.789063 14.800781 24.699219 L 11.71875 21.859375 L 9.121094 21.859375 C 8.851563 21.859375 8.621094 21.761719 8.429688 21.570313 C 8.238281 21.390625 8.140625 21.160156 8.140625 20.890625 Z M 9.078125 15.46875 C 9.078125 16.460938 9.269531 17.339844 9.660156 18.089844 C 9.71875 18.199219 9.808594 18.25 9.929688 18.25 L 11.800781 18.25 C 11.878906 18.25 11.929688 18.230469 11.949219 18.179688 C 11.96875 18.128906 11.941406 18.070313 11.878906 18 C 11.289063 17.261719 10.988281 16.410156 10.988281 15.46875 C 10.988281 14.371094 11.378906 13.429688 12.171875 12.660156 C 12.960938 11.890625 13.910156 11.5 15.019531 11.5 C 16.121094 11.5 17.058594 11.890625 17.851563 12.660156 C 18.628906 13.441406 19.03125 14.371094 19.03125 15.460938 C 19.03125 16.398438 18.730469 17.25 18.140625 17.988281 C 18.070313 18.058594 18.050781 18.121094 18.070313 18.171875 C 18.089844 18.21875 18.140625 18.238281 18.21875 18.238281 L 20.101563 18.238281 C 20.230469 18.238281 20.308594 18.191406 20.339844 18.078125 C 20.75 17.300781 20.960938 16.421875 20.960938 15.460938 C 20.960938 14.671875 20.800781 13.898438 20.488281 13.171875 C 20.179688 12.441406 19.75 11.800781 19.21875 11.269531 C 18.691406 10.738281 18.058594 10.320313 17.328125 10 C 16.601563 9.679688 15.828125 9.53125 15.03125 9.53125 C 14.230469 9.53125 13.460938 9.691406 12.730469 10 C 12 10.320313 11.371094 10.738281 10.839844 11.269531 C 10.308594 11.800781 9.890625 12.429688 9.570313 13.171875 C 9.25 13.910156 9.078125 14.679688 9.078125 15.46875 Z M 14.039063 6.660156 L 14.039063 4.328125 C 14.039063 4.058594 14.140625 3.828125 14.328125 3.640625 C 14.519531 3.449219 14.75 3.351563 15.019531 3.351563 C 15.289063 3.351563 15.519531 3.449219 15.710938 3.640625 C 15.898438 3.828125 16 4.058594 16 4.328125 L 16 6.648438 C 16 6.921875 15.898438 7.148438 15.710938 7.339844 C 15.519531 7.53125 15.289063 7.628906 15.019531 7.628906 C 14.75 7.628906 14.519531 7.53125 14.328125 7.339844 C 14.128906 7.148438 14.039063 6.929688 14.039063 6.660156 Z M 20.308594 9.238281 C 20.308594 8.960938 20.398438 8.730469 20.570313 8.570313 L 22.199219 6.941406 C 22.359375 6.738281 22.589844 6.640625 22.878906 6.640625 C 23.148438 6.640625 23.378906 6.738281 23.558594 6.929688 C 23.738281 7.121094 23.828125 7.351563 23.828125 7.621094 C 23.828125 7.898438 23.75 8.128906 23.578125 8.300781 L 21.921875 9.929688 C 21.691406 10.121094 21.460938 10.210938 21.230469 10.210938 C 20.96875 10.210938 20.75 10.121094 20.570313 9.929688 C 20.398438 9.738281 20.308594 9.511719 20.308594 9.238281 Z M 22.898438 15.46875 C 22.898438 15.199219 22.988281 14.980469 23.160156 14.800781 C 23.328125 14.621094 23.558594 14.53125 23.828125 14.53125 L 26.148438 14.53125 C 26.421875 14.53125 26.648438 14.621094 26.839844 14.800781 C 27.03125 14.980469 27.128906 15.199219 27.128906 15.46875 C 27.128906 15.738281 27.03125 15.96875 26.839844 16.171875 C 26.648438 16.371094 26.421875 16.46875 26.148438 16.46875 L 23.828125 16.46875 C 23.570313 16.46875 23.351563 16.371094 23.171875 16.179688 C 22.988281 15.988281 22.898438 15.75 22.898438 15.46875 Z M 22.898438 15.46875 "/>
</g>
</svg>

<?xml version="1.0" encoding="utf-8"?>
<!-- Generator: Adobe Illustrator 22.0.1, SVG Export Plug-In . SVG Version: 6.00 Build 0)  -->
<svg version="1.1" id="Layer_1" xmlns="http://www.w3.org/2000/svg" xmlns:xlink="http://www.w3.org/1999/xlink" x="0px" y="0px"
	 viewBox="0 0 30 30" style="enable-background:new 0 0 30 30;" xml:space="preserve">
<path d="M2.88,15.47c0-0.28,0.1-0.5,0.3-0.68c0.17-0.18,0.4-0.26,0.68-0.26h2.31c0.27,0,0.49,0.09,0.67,0.27
	c0.17,0.18,0.26,0.4,0.26,0.67c0,0.28-0.09,0.52-0.27,0.71c-0.18,0.19-0.4,0.29-0.66,0.29H3.87c-0.27,0-0.5-0.1-0.69-0.3
	C2.98,15.97,2.88,15.74,2.88,15.47z M6.17,7.61c0-0.28,0.08-0.51,0.25-0.68c0.2-0.2,0.43-0.3,0.7-0.3c0.29,0,0.51,0.1,0.68,0.3
	l1.62,1.63c0.46,0.44,0.46,0.89,0,1.35c-0.19,0.19-0.4,0.28-0.65,0.28c-0.22,0-0.44-0.09-0.68-0.28L6.43,8.29
	C6.26,8.11,6.17,7.88,6.17,7.61z M8.14,20.89c0-0.26,0.1-0.49,0.3-0.69c0.18-0.18,0.41-0.27,0.68-0.27h3.22
	c0.11,0,0.2,0.02,0.28,0.08l2.35,2.22L17.36,20c0.07-0.05,0.17-0.08,0.29-0.08h3.3c0.27,0,0.5,0.09,0.69,0.28
	c0.19,0.19,0.29,0.42,0.29,0.68c0,0.27-0.1,0.5-0.29,0.69c-0.19,0.19-0.42,0.29-0.69,0.29h-2.68l-3.14,2.84
	c-0.12,0.09-0.23,0.09-0.33,0l-3.08-2.84h-2.6c-0.27,0-0.5-0.1-0.69-0.29C8.24,21.39,8.14,21.16,8.14,20.89z M9.08,15.47
	c0,0.99,0.19,1.87,0.58,2.62c0.06,0.11,0.15,0.16,0.27,0.16h1.87c0.08,0,0.13-0.02,0.15-0.07c0.02-0.05-0.01-0.11-0.07-0.18
	c-0.59-0.74-0.89-1.59-0.89-2.53c0-1.1,0.39-2.04,1.18-2.81c0.79-0.77,1.74-1.16,2.85-1.16c1.1,0,2.04,0.39,2.83,1.16
	c0.78,0.78,1.18,1.71,1.18,2.8c0,0.94-0.3,1.79-0.89,2.53c-0.07,0.07-0.09,0.13-0.07,0.18c0.02,0.05,0.07,0.07,0.15,0.07h1.88
	c0.13,0,0.21-0.05,0.24-0.16c0.41-0.78,0.62-1.66,0.62-2.62c0-0.79-0.16-1.56-0.47-2.29s-0.74-1.37-1.27-1.9s-1.16-0.95-1.89-1.27
	c-0.73-0.32-1.5-0.47-2.3-0.47c-0.8,0-1.57,0.16-2.3,0.47c-0.73,0.32-1.36,0.74-1.89,1.27s-0.95,1.16-1.27,1.9
	S9.08,14.68,9.08,15.47z M14.04,6.66V4.33c0-0.27,0.1-0.5,0.29-0.69s0.42-0.29,0.69-0.29c0.27,0,0.5,0.1,0.69,0.29
	s0.29,0.42,0.29,0.69v2.32c0,0.27-0.1,0.5-0.29,0.69c-0.19,0.19-0.42,0.29-0.69,0.29c-0.27,0-0.5-0.1-0.69-0.29
	C14.13,7.15,14.04,6.93,14.04,6.66z M20.31,9.24c0-0.28,0.09-0.51,0.26-0.67l1.63-1.63c0.16-0.2,0.39-0.3,0.68-0.3
	c0.27,0,0.5,0.1,0.68,0.29c0.18,0.19,0.27,0.42,0.27,0.69c0,0.28-0.08,0.51-0.25,0.68l-1.66,1.63c-0.23,0.19-0.46,0.28-0.69,0.28
	c-0.26,0-0.48-0.09-0.66-0.28C20.4,9.74,20.31,9.51,20.31,9.24z M22.9,15.47c0-0.27,0.09-0.49,0.26-0.67
	c0.17-0.18,0.4-0.27,0.67-0.27h2.32c0.27,0,0.5,0.09,0.69,0.27c0.19,0.18,0.29,0.4,0.29,0.67c0,0.27-0.1,0.5-0.29,0.7
	c-0.19,0.2-0.42,0.3-0.69,0.3h-2.32c-0.26,0-0.48-0.1-0.66-0.29C22.99,15.99,22.9,15.75,22.9,15.47z"/>
</svg>
